source/img/icons/ok.svg

<svg width="30" height="30" viewBox="0 0 30 30" fill="none" xmlns="http://www.w3.org/2000/svg">
<path d="M15.1711 12.6428C16.3282 12.6428 17.2282 11.6785 17.2068 10.6285C17.2282 9.57849 16.3496 8.59277 15.1925 8.59277C14.0782 8.59277 13.1568 9.49277 13.1568 10.6071C13.1568 11.7213 14.0568 12.6428 15.1711 12.6428Z" fill="#F8FDFF"/>
<path d="M15 0C6.72856 0 0 6.72857 0 15C0 23.2929 6.72856 30 15 30C23.2928 30 29.9999 23.2714 29.9999 15C30.0214 6.72857 23.2928 0 15 0ZM15.2143 5.67857C17.9143 5.67857 20.1428 7.90714 20.1214 10.6286C20.1214 13.3714 17.8714 15.5786 15.1285 15.5357C12.4285 15.4929 10.2643 13.2857 10.2643 10.6071C10.2643 7.88571 12.4714 5.67857 15.2143 5.67857ZM20.7214 17.25C20.7214 17.2929 20.7 17.3143 20.7 17.3571C20.6357 17.7857 20.4214 18.1286 20.0571 18.3643C19.8214 18.5143 19.5643 18.6643 19.3071 18.7929C18.6643 19.1143 17.9785 19.3714 17.2714 19.5429C17.1857 19.5643 17.1857 19.5643 17.25 19.6286C17.6357 20.0143 18.0428 20.4214 18.4285 20.8071C18.9214 21.3 19.4357 21.8143 19.9285 22.3071C20.6357 23.0143 20.4428 24.1929 19.5428 24.6214C19.3928 24.7071 19.2214 24.7286 19.05 24.7714C18.9643 24.7714 18.8571 24.7714 18.7714 24.7714C18.75 24.7714 18.7285 24.7714 18.7285 24.75C18.3857 24.7071 18.1071 24.5357 17.85 24.3C16.9928 23.4429 16.1143 22.5643 15.2571 21.7071C15.1928 21.6429 15.1928 21.6429 15.1285 21.7071C14.25 22.5857 13.3928 23.4429 12.5143 24.3214C12.3643 24.4714 12.2143 24.5786 12.0214 24.6643C11.8928 24.7286 11.7428 24.75 11.6143 24.7714C11.5286 24.7714 11.4428 24.7714 11.3357 24.7714C11.2928 24.7714 11.2714 24.75 11.2286 24.75C10.65 24.6429 10.2643 24.3214 10.0928 23.7643C9.92141 23.2071 10.05 22.7143 10.4571 22.3071C10.8214 21.9429 11.1643 21.6 11.5286 21.2357C12.0643 20.7 12.6 20.1643 13.1143 19.65C13.1785 19.5857 13.1785 19.5857 13.0928 19.5643C13.0714 19.5643 13.0285 19.5429 13.0071 19.5429C12.0428 19.3071 11.1643 18.9214 10.3286 18.4071C9.8357 18.0857 9.59998 17.6143 9.66427 17.0357C9.77141 15.9643 10.9714 15.3857 11.8714 15.9643C12.0428 16.0714 12.1928 16.1571 12.3857 16.2429C13.3714 16.7357 14.4214 16.95 15.5143 16.8857C16.05 16.8643 16.5857 16.7571 17.1214 16.5857C17.6357 16.4143 18.0857 16.1786 18.5571 15.9214C19.3285 15.4714 20.3357 15.8357 20.6357 16.6714C20.6785 16.8 20.7 16.9071 20.7214 17.0357C20.7214 17.1 20.7214 17.1643 20.7214 17.25Z" fill="#F8FDFF"/>
</svg>

<svg width="30" height="30" fill="none" xmlns="http://www.w3.org/2000/svg"><path d="M15.171 12.643c1.157 0 2.057-.965 2.036-2.014.021-1.05-.857-2.036-2.014-2.036-1.115 0-2.036.9-2.036 2.014 0 1.114.9 2.036 2.014 2.036z" fill="#F8FDFF"/><path d="M15 0C6.729 0 0 6.729 0 15c0 8.293 6.729 15 15 15 8.293 0 15-6.729 15-15 .021-8.271-6.707-15-15-15zm.214 5.679c2.7 0 4.929 2.228 4.907 4.95 0 2.742-2.25 4.95-4.992 4.907-2.7-.043-4.865-2.25-4.865-4.929a4.934 4.934 0 014.95-4.928zm5.507 11.571c0 .043-.021.064-.021.107a1.401 1.401 0 01-.643 1.007c-.236.15-.493.3-.75.429a9.662 9.662 0 01-2.036.75c-.085.021-.085.021-.021.086l1.178 1.178 1.5 1.5a1.43 1.43 0 01-.385 2.314c-.15.086-.322.108-.493.15h-.279c-.021 0-.043 0-.043-.021-.342-.043-.62-.214-.878-.45l-2.593-2.593c-.064-.064-.064-.064-.128 0l-2.615 2.614c-.15.15-.3.258-.493.343-.128.065-.278.086-.407.107h-.278c-.043 0-.065-.021-.107-.021-.579-.107-.965-.429-1.136-.986-.172-.557-.043-1.05.364-1.457l1.072-1.071 1.585-1.586c.064-.064.064-.064-.021-.086-.022 0-.065-.021-.086-.021a9.26 9.26 0 01-2.678-1.136c-.493-.321-.729-.793-.665-1.371a1.44 1.44 0 012.207-1.072c.172.107.322.193.515.279a6.1 6.1 0 003.128.643 6.069 6.069 0 001.607-.3c.515-.172.965-.407 1.436-.665a1.445 1.445 0 012.079.75c.043.129.064.236.085.365v.214z" fill="#F8FDFF"/></svg>
